X:3526
T:Crazy Jane. GS.014
M:3/4
L:1/8
Q:90
S:George Spencer m/s, Leeds,1831
R:Air
O:England
A:Leeds
H:1831
Z:vmp.Cherri Graebe
K:G major
DG | (A2F).G.A.B | (AB/2)c/2 B2 d>G | {G}F3 GFE | D4 DG | .G2. F.G
A.B. | (GB/2)c/2 B2 dG | Ec B2 A2 | 
G4 || "Slow" (FG) | A3 BGE | (AF) D2 (FG) | (AB) F2 "tr"E2 | D4 DG | (G2
F)GAB | (AB/2)c/2 B2 dG | EcB2A2 | G4 ||


